!!!OTL: 25. Skotshne
!!!Genre:	Skotshne
!!!Mode:	Freygish
!!!Listening/dance:	listening
!!!:	*c:; *g:
!!!One_Mode:	no
!!!Orig_tonic: unknown
**kern
*thru
*I"P1
*clefG2
*k[b-e-a-]
*g:
!LO:TX:a:i:t=G-minor
=18
16aLL
16b-JJ
4cc
16b-LL
16aJJ
=19
4g
8.fL
16fJk
=20
(16fLL
16b-)
(16b-
16ddJJ)
8ffL
16ee-L
16ddJJ
=21
4..cc
16f
=22
(16fLL
16b-)
(16b-
16ddJJ)
8ffL
16ee-L
16ddJJ
=23
(16qqcc/LL
16qqdd/JJ
16ccLL)
16b-
16cc
16ddJJ
8.ccL
16b-Jk
=24
(16b-LL
16a)
(16a
16b-JJ)
(16b-LL
16a-)
(16a-
16gJJ)
=25
!LO:TX:b:Bi:t=Da Capo
2g
!!!End-Modulation
==
*-
